X:1
T:As tu point veu
T:As tu point veu
T:Adriaan Willaert
T:Source : Trium vocum cantiones---Nürnberg---J.Petreius---1541. Editor : André Vierendeels (04/08/15).
T:Notes : Original clefs : C1, C3, C4 Original note values have been halved  
C:Adriaan Willaert
%%score [ 1 [ 2 3 ] ]
L:1/8
Q:1/4=80
M:2/2
K:F
V:1 treble nm="Discantus" snm="D"
V:2 treble-8 nm="Tenor 1" snm="T 1"
V:3 treble-8 nm="Tenor 2" snm="T 2"
V:1
 z8 | z8 | z2 F2 FGAB | c3 A B2 c2 | d2 B2 B2 d2 | c2 A2 A2 c2 | B2 A2 A2 G2 | G2 F2 F2 E2 | F8 | %9
w: ||As tu point veu la|vis- con- ti- *|ne, tant po- pi-|ne, tant go- di-|n'et qui a son|chef bien pi- *|gné.|
 z8 | z2 F2 FGAB | c2 cA B2 c2 | d2 B2 B2 d2 | c2 A2 ABcA | B2 A2 A2 G2 | G2 F2 F2 E2 | F2 FG A4 | %17
w: |El- le'a don- né la|gor- re'a les- pi- ne,|sus sa mi- ne,|la plus fi- * * *|ne, qui soit point|au re- fon- *|doir, il y a,|
 z2 FG A2 A2 | A2 A2 A2 A2 | A3 B c2 c2 | c2 B2 A2 c2 | B3 A/G/ A4 | G4 z2 F2 | F2 E2 D2 F2 | %24
w: il y a es-|té- en re- lou-|pe _ _ des-|sus- son ver- dil-|lon- * * *|net, des-|sus son ver- dil-|
 E3 D/C/ D4 | C4 z2 FG | A2 A2 A2 A2 | A2 A2 D2 F2 | F2 E2 F2 D2 | C2 F2 F2 E2 | F2 D2 CDEF | %31
w: lon- * * *|net. Et si|a es- té painct|et brou- lé vert|com- me'ung pa- pe-|gay, et brou- lé|vert com- me'ung _ _ _|
 G2 F4 E2 | F4 z2 CD | E2 F2 E2 CD | E2 F2 E2 FE | D2 D2 C2 A,B, | C4 z2 CD | E2 F2 E2 CD | %38
w: _ pa- pe-|gay, fa ri|ran lan lan, fa- ri|ran lan lan, fa- ri|ran lan lan, fa- ri-|ran, fa- ri|ran lan lan, fa- ri-|
 E2 F2 D2 GF | E2 F3 EED/E/ | F8 |] %41
w: ran lan lan, fa ri|ran la le- ly re lon|sa.|
V:2
 z4 z2 c2 | cdef g2 e2 | f3 g a2 f2 | f2 a2 g2 e2 | f2 g2 e2 d2 | z2 f2 c2 e2 | d2 c3 A B2 | %7
w: As|tu point veu la vis- con-|ti- * ne, tant|po- pi- ne, tant|go- di- * n'et|qui a son|chef bien _ _|
 c2 A2 G4 | F4 z2 c2 | cdef g2 ge | f3 g a2 f2 | f2 a2 g2 e2 | f2 g2 e2 d2 | z2 f2 c2 e2 | %14
w: _ _ pi-|gné. El-|le'a don- né la gor- re'a les-|pi- * * ne,|sus sa mi- ne,|la plus fi- ne,|qui soit point|
 d2 c3 A B2 | c2 A2 G4 | z2 AB c2 d2 | c2 d2 e2 f2 | e2 f3 efd | e2 f2 edcB | A2 de fg a2- | %21
w: au re- * *|* fon- doir,|il y a es-|té en re- lou-|pe des- * * *|sus son ver- * * *|* * * * * dil-|
 ag g4 f2 | e3 d/c/ d4 | c4 z4 | z4 F2 G2 | A3 B c2 d2 | e2 f2 e2 f2 | f2 e2 f2 d2 | c2 z2 z2 FG | %29
w: |* * * lon-|net.|Et si|a es- té painct|et brou- lé vert|com- me'ung pa- pe-|gay, et si|
 A2 A2 A2 A2 | A2 A2 A2 A2 | B2 A2 B2 G2 | F2 FG A2 A2 | A2 FG A2 A2 | A2 AB c2 c2 | B2 AA G2 F2 | %36
w: a es- té painct|et- brou- lé vert|com- me'ung pa- pe-|gay, fa ri ran lan|lan, fa ri ran lan|lan, fa- ri ran lan|lan, fa- ri ran lan|
 G2 FG A2 A2 | A2 FG A2 A2 | A2 A2 B3 A | G2 F2 G4 | F8 |] %41
w: lan, fa ri ran lan|lan, fa- ri ran lan|lan lan, fa- ri-|ran la lon|sa.|
V:3
 z2 F2 FGAB | c3 A B2 c2 | d4 D4 | z2 F2 G2 A2 | D2 G2 GA BG | A2 D2 F2 C2 | DEFG AF G2 | %7
w: As tu point veu la|vis- * * con-|ti- ne,|tant po- pi-|ne, tant go- * di- *|n'et qui a son|chef _ _ _ _ _ _|
 E2 F2 C4 | z2 F2 FGAB | c2 cA B2 c2 | d4 D4 | z2 F2 G2 A2 | D2 G2 GABG | A2 D2 F2 C2 | %14
w: bien- pi- gné.|El- le'a don- né la|gor- re'a les- pi- *|* ne,|sus sa mi-|ne,- la plus _ _ _|fi- ne, qui soit|
 DEFG AF G2 | E2 F2 C4 | F4 z2 FG | A2 B2 A2 F2 | c2 d2 A2 d2 | c2 d2 cBAG | F2 G4 F2 | G4 d4 | %22
w: point _ _ _ _ _ _|au re- fon-|doir, il y|a es- té en|re- lou- pe des-|sus son ver- * * *|* * dil-|lon- net,|
 z2 c2 c2 B2 | ABcA B2 A2- | AG c4 B2 | c2 FG A2 B2 | A2 F2 c2 d2 | A2 c2 B2 B2 | A3 G F2 B,2 | %29
w: des- sus son|ver- * * * * dil-|* * * lon-|net. Et si a es-|té painct et brou-|lé vert com- me'ung|pa- pe- gay, ung|
 F3 E D2 C2 | D4 z4 | z8 | z2 AB c2 F2 | c2 AB c2 F2 | c2 FD A2 F2 | G2 FF E2 D2 | C2 AB c2 F2 | %37
w: pa- * * pe-|gay,||fa ri ran lan|lan, fa ri ran lan|lan, fa- ri- ran lan|* fa ri ran lan|lan, fa- ri ran lan|
 c2 AB c2 F2 | c2 FD G2 EF | C2 D2 C4 | F8 |] %41
w: lan, fa- ri ran la|lan, fa ri ran, fa- ri|ran la lon|sa.|

